X:SSFx 15-00 15
T:Don't You Want Me (To Morris)
C:Oakey/Callis/Wright, 1981
M:6/8
K:Am
P:A
A3 AEG AEG c3 |1,3 A3 AEG AcG A3 :|2,4 AEG cde dcB A3 :|
P:B
A| c2A c2A efe dcB |1,3 c2A c2A GAG GAB :|2,4 c2A cde d2B A2G :|
P:C
A3 AEG AGE E2G A3 ABc cdc BAG :| [M:2/4] A2 A2 Bc d2 cA cd ee e2
P:D
[M:6/8] f3 fec Bdg dBG A2f fef |1,2,3 gfe d2e :|4 gfe dcB
